PortableApps/LibreOfficePortable/App/libreoffice/help/media/icon-themes/cmd/lc_cleararrows.svg

<svg viewBox="0 0 24 24" xmlns="http://www.w3.org/2000/svg"><path d="m21 1.75-5.755859.3339844 1.03125 1.7324218-10.7656254 6.0253907c-.2146978-.1383018-.2111789-.1210558-.3398437-.1992188a2.5 2.5 0 0 0 -1.6699219-.6425781 2.5 2.5 0 0 0 -2.5 2.5 2.5 2.5 0 0 0 2.5 2.5 2.5 2.5 0 0 0 1.9160156-.894531c.0376383.019049.0541999.033191.09375.052734l8.8710934 4.964844.142579-.142578-1.996094-2.050781-6.5058596-3.640626c-.0604418-.019932-.0838423-.032941-.1328125-.050781a2.5 2.5 0 0 0 .0585937-.238281c.0547884.000519.086061-.002616.1523438 0h8.9785156 2.921875v2l.996094-.498047 1.169922-1.199219a1.0001 1.0001 0 0 1 1.361328-.066406l1.472656-.736328-5-2.5v2h-11.9003906c-.0078702.000239-.0804753-.003696-.1542969 0a2.5 2.5 0 0 0 -.0507813-.207031c.0738853-.049205.049785-.030588.1269532-.082031l10.7695316-6.0273442 1.03125 1.7324218zm-3.349609 15.121094-.730469 1.230468a1.0001 1.0001 0 0 1 -.283203.587891l-.44336.447266.082032.046875-1.03125 1.732422.417968.023437 1.623047-1.714844a1.0001 1.0001 0 0 1 1.451172 0l1.900391 2.003907.363281.021484-2.9375-4.3125a1.0001 1.0001 0 0 1 -.412109-.066406z" fill="#4d82b8"/><path d="m23 20.944338-2.895447-2.946153 2.7861-3.086414-2.008392-1.911762-2.867282 2.941173-2.925406-2.941173-2.089573 1.98208 2.925403 3.003525-2.925403 2.955562 2.089573 2.058824 2.922011-3.088233 2.928799 3.088233z" fill="#e68497"/></svg>

<svg viewBox="0 0 24 24" xmlns="http://www.w3.org/2000/svg">
  <path
     style="fill:#4d82b8"
     d="M 21 1.75 L 15.244141 2.0839844 L 16.275391 3.8164062 L 5.5097656 9.8417969 C 5.2950678 9.7034951 5.2985867 9.7207411 5.1699219 9.6425781 A 2.5 2.5 0 0 0 3.5 9 A 2.5 2.5 0 0 0 1 11.5 A 2.5 2.5 0 0 0 3.5 14 A 2.5 2.5 0 0 0 5.4160156 13.105469 C 5.4536539 13.124518 5.4702155 13.13866 5.5097656 13.158203 L 14.380859 18.123047 L 14.523438 17.980469 L 12.527344 15.929688 L 6.0214844 12.289062 C 5.9610426 12.26913 5.9376421 12.256121 5.8886719 12.238281 A 2.5 2.5 0 0 0 5.9472656 12 C 6.002054 12.000519 6.0333266 11.997384 6.0996094 12 L 15.078125 12 L 18 12 L 18 14 L 18.996094 13.501953 L 20.166016 12.302734 A 1.0001 1.0001 0 0 1 21.527344 12.236328 L 23 11.5 L 18 9 L 18 11 L 6.0996094 11 C 6.0917392 11.000239 6.0191341 10.996304 5.9453125 11 A 2.5 2.5 0 0 0 5.8945312 10.792969 C 5.9684165 10.743764 5.9443162 10.762381 6.0214844 10.710938 L 16.791016 4.6835938 L 17.822266 6.4160156 L 21 1.75 z M 17.650391 16.871094 L 16.919922 18.101562 A 1.0001 1.0001 0 0 1 16.636719 18.689453 L 16.193359 19.136719 L 16.275391 19.183594 L 15.244141 20.916016 L 15.662109 20.939453 L 17.285156 19.224609 A 1.0001 1.0001 0 0 1 18.736328 19.224609 L 20.636719 21.228516 L 21 21.25 L 18.0625 16.9375 A 1.0001 1.0001 0 0 1 17.650391 16.871094 z "
     />
  <path
     style="fill:#e68497"
     d="m 23,20.944338 -2.895447,-2.946153 2.7861,-3.086414 -2.008392,-1.911762 -2.867282,2.941173 L 15.089573,13.000009 13,14.982089 15.925403,17.985614 13,20.941176 15.089573,23 18.011584,19.911767 20.940383,23 Z"
     />
</svg>
